public/img/clients/aon.svg

<svg width="200" height="100" viewBox="0 0 200 100" fill="none" xmlns="http://www.w3.org/2000/svg">
<path d="M86.7945 29.8231L91.742 65.2222H83.903L80.4166 40.5L80.335 40.4448L74.4058 51.7058H80.746L81.7342 58.2715H70.9755L67.2964 65.2222H58.5415L61.9724 58.2715H57.1418L60.5183 51.7058H65.4581L77.0409 29.8231H86.7945ZM142.858 38.0294L138.11 65.2222H130.261L124.333 51.56C123.426 56.0898 122.714 60.6925 121.916 65.2223H114.011C114.312 63.1374 114.725 61.0031 114.917 58.9443C113.713 61.1234 111.936 62.9321 109.779 64.1753C107.621 65.4184 105.165 66.0488 102.676 65.9982C100.663 65.8975 98.6959 65.3619 96.9097 64.4283C95.1236 63.4946 93.5609 62.1851 92.3292 60.5898L90.2977 46.3727C91.2876 43.9583 92.9126 41.8568 95.0003 40.2914C97.088 38.7259 99.5605 37.7547 102.156 37.4809C105.564 37.2108 108.95 38.2232 111.651 40.32C114.352 42.4167 116.172 45.4464 116.755 48.8154L118.694 38.0294H126.389L132.455 51.7798C133.306 47.2239 134.13 42.6403 134.87 38.0294H142.858ZM107.534 46.7567C106.803 45.8494 105.809 45.1909 104.689 44.8715C103.568 44.5521 102.376 44.5875 101.277 44.9729C99.3831 45.4953 97.9008 47.5542 97.269 49.2552C96.1411 52.2254 97.4303 56.2904 99.4792 57.546C100.15 58.0095 100.913 58.3228 101.715 58.4644C102.518 58.606 103.342 58.5726 104.131 58.3666C105.012 58.074 105.826 57.6075 106.524 56.9947C107.222 56.3819 107.79 55.6353 108.194 54.799C109.263 52.4107 109.455 48.8153 107.534 46.7567Z" fill="black"/>
</svg>

<svg xmlns="http://www.w3.org/2000/svg" focusable="false" role="img" viewBox="0 0 200 100" fill="currentColor">
  <path d="M86.794 29.823l4.948 35.4h-7.839L80.417 40.5l-.082-.055-5.93 11.26h6.341l.988 6.567H70.976l-3.68 6.95h-8.755l3.431-6.95h-4.83l3.376-6.566h4.94l11.583-21.883h9.754zm56.064 8.206l-4.748 27.193h-7.849l-5.928-13.662c-.907 4.53-1.619 9.133-2.417 13.662h-7.905c.301-2.085.714-4.219.906-6.278a13.666 13.666 0 01-12.241 7.054 13.953 13.953 0 01-10.347-5.408l-2.031-14.217a14.455 14.455 0 0111.858-8.892 13.717 13.717 0 0114.599 11.334l1.939-10.786h7.695l6.066 13.75c.851-4.555 1.675-9.139 2.415-13.75h7.988zm-35.324 8.728a5.64 5.64 0 00-6.257-1.784c-1.894.522-3.376 2.581-4.008 4.282-1.128 2.97.161 7.035 2.21 8.291a5.668 5.668 0 004.652.82 6.946 6.946 0 004.063-3.567c1.069-2.388 1.261-5.984-.66-8.042z"/>
</svg>
